X:16785
T:The Green Fields of White Point
R:pipe reel
C:Winston Fitzgerald
O:20th Century Cape Breton
S:Silver Apple News,1993
B:Winston Fitzgeralds Collection of Fiddle Tunes, Cranford Publications (ISBN 0-9691181-7-1)
D:Classic Cuts (Breton Books)
N:Contacts ...
N:..... Breton Books  <http://www.capebretonsmagazine.com>
N:..... Cranford Publications <http://www.cranfordpub.com>
H:Copyrights:Ann Fitzgerald
N:<fitzgerald@cranfordpub.com>
Z:This abc transcription is for personal use only, 
Z:provided this notice remains attached.
Z:Used by permission
Z:Paul Stewart Cranford 
Q:333
L:1/8
M:C|
K:A
a|eAcB A/A/A Aa|f2 ec e/e/e ea|eAcB A/A/A Aa|f2 ec B/B/B Ba|!
eAcB A/A/A Aa|f2 ec e/e/e ef|agfa eace|dbca B/B/B B:|!
|:a|ecce fddf|ecac e/e/e ef|ecce fddf|e2 cA B/B/B Ba|!
ecce fddf|ecac e/e/e ef|agfa eace|dbca B/B/B B:|!
